X:20
T:Echo
Z: id:dc-hornpipe-19
M:C|
L:1/8
K:D Major
fe|dAFA DAFA|d2ec dcBc|A2ce A2ce|fdec dcBA|!
dAFA DAFA|d2ec dcBA|gfgb afdf|eABc d2:|!
B=c|dgg2 bgg2|dgbg agfe|A2ce A2ce|fdec dcBA|!
dgg2 bgg2|dgbg agef|gfgb afdf|eABc d2:|!

